X:86
T: ES WARN EINMAL ZWEI BAUERNSOEHN
N: E0050A
O: Europa, Mitteleuropa, Deutschland, Baden
R: erzaehlendes Volks - Lied, Sage, Mord
M: 3/4
L: 1/8
K: G
D | DGG2G2 | FGA3
D | DFA2A2 | GAB2z
G | BBc2B2 | AdB2z
B | BBc2B2 | A2G2z

